X:1
T:Title
%%score { ( 1 3 5 ) | ( 2 4 ) }
L:1/8
Q:1/4=100
M:4/4
K:G
V:1 treble nm="Grand Piano"
V:3 treble 
V:5 treble 
V:2 bass 
V:4 bass 
V:1
 [B,D]3 [B,D] [_B,^C][=B,D][CE][B,D] | [B,D]2 [B,G]4 [DG]>A | B3 G c2 B2 | B2 A4 F>[EG] | %4
w: J.~Howard~Entwisle * * * * *||||
 [FA]3 [FA] [=FB]2 [F^G]2 | [FA]2 [Fd]4 [A,DF]>[A,DF] | [A,^CG]3 [A,CG] [G,CF]2[K:bass] [G,CE]2 | %7
w: |||
[M:9/8] D2- [B,D]- [B,D-] [CD]2- [CD][K:treble]D>D |[M:4/4] [B,D]3 [DB] [Ec]2 [DB]2 | %9
w: ||
 [DB]2 [DA]4 [FA]>[GB] | [Ac]3 [FA] [DFd]2 [DAc]2 | [DAc]2 B4 B>c | d3 G e2 d2 | %13
w: ||||
 [Ed]2 [Ec]2 [A,E]2 [CEA]2 | [B,DG]3 [B,DG] [CEG]2 [CFA]2 |[M:9/8] [B,G]8- [B,G] |[M:1/4] B>c | %17
w: ||||
[M:4/4] A6[K:bass][K:treble] z2 | G6[K:bass] z2 | [CE]2[K:treble] [CF]2 [DG]>[DG] [^CA]>[CB] | %20
w: |||
 A6 z2 | d>e d>B G2 A>B | [Ec]2 [Ec]2 [Ec]2 [G,E][CEA] | [B,DG]3 [DGB] [CFB]2 [CDA]2 | G6 z2 |] %25
w: |||||
V:2
 [G,,G,]3 [G,,G,] [G,,G,][G,,G,][G,,G,][G,,G,] | [G,,G,]2 [G,,D,]4 [B,,G,]>[D,F,D] | %2
 [G,D]3 [G,B,] [G,E]2 [G,D]2 | [D,G,D]2 [D,F,D]4 [D,A,D]>[D,A,] | [D,A,]3 [D,A,] [D,^G,]2 [D,B,]2 | %5
 [D,A,]2 [D,A,]4 D,>D, | A,,3 A,, A,,2 A,,2 |[M:9/8] z2 G,- G, A,2- A,[D,F,C]>[D,F,C] | %8
[M:4/4] [G,,G,]3 [G,,G,] [G,,G,]2 [G,,G,]2 | [D,G,]2 [D,F,]4 [D,D]>[D,D] | [D,D]3 [D,D] D,E, F,2 | %11
 G,2[K:treble] [G,DG]4 [G,G]>[G,A,G] | [G,B,G]3 [G,B,] [G,B,=F]2 [G,F]2 | [C,G,]2 [C,G,]2 C,2 C,2 | %14
 D,3 D, D,2 D,2 |[M:9/8] G,8- G, |[M:1/4] D>E |[M:4/4] C2- [D,C-]2 C>B, C>D | %18
 G,,2 G,,2 G,,2 [G,,G,]>[G,,G,] | [C,G,]2 [A,,D,]2 [B,,G,]>[B,,G,] [A,,G,]>[A,,G,] | %20
 [D,F,D]2 [D,F,]2 [D,F,]2[K:treble] [G,D]>[G,A,D] | %21
 [G,B,G]>[G,CG] [G,B,G]>[G,DG] [G,B,]2 [G,=F]>[G,F] | [C,G,]2 [C,G,]2 [C,G,]2 C,C, | %23
 D,3 D, D,2 D,2 | z2 C2 B,2 z2 |] %25
V:3
 x8 | x8 | x8 | x8 | x8 | x8 | x6[K:bass] x2 |[M:9/8] .[F,A,]3 z3 z3[K:treble] |[M:4/4] x8 | x8 | %10
 x8 | x8 | x8 | x8 | x8 |[M:9/8] x9 |[M:1/4] x2 |[M:4/4] z2[K:bass] F,2 z z/[K:treble] ^G/ A>B | %18
 [G,B,]2[K:bass] [E,C]2 [D,B,]2 [B,D]>[B,D] | x2[K:treble] x6 | z2 D2 D2 B>c | x8 | x8 | x8 | %24
 [B,D]2 E2 D2 z2 |] %25
V:4
 x8 | x8 | x8 | x8 | x8 | x8 | x8 |[M:9/8] D,6- D, z z |[M:4/4] x8 | x8 | x8 | x2[K:treble] x6 | %12
 x8 | x8 | x8 |[M:9/8] x9 |[M:1/4] x2 |[M:4/4] [D,F,]2 z2 D,2 [D,F,]2 | x8 | x8 | x6[K:treble] x2 | %21
 x8 | x8 | x8 | G,,6 z2 |] %25
V:5
 x8 | x8 | x8 | x8 | x8 | x8 | x6[K:bass] x2 |[M:9/8] x7[K:treble] x2 |[M:4/4] x8 | x8 | x8 | x8 | %12
 x8 | x8 | x8 |[M:9/8] x9 |[M:1/4] x2 |[M:4/4] z4[K:bass] F,2[K:treble] z2 | x2[K:bass] x6 | %19
 x2[K:treble] x6 | x8 | x8 | x8 | x8 | x8 |] %25

